X: 24094
T: Long Note, The
R: reel
M: 4/4
K: Dmixolydian
D3A AGEF|GE~E2 cEdA|D3A AGEG|1 A2GA EAGE:|2 A2GA EADA||
d3B cAdB|cAdB cAG2|d3B cA (3Bcd|e2ag ~e2d2|
d3B cAdB|cAdB cAGE|D2 (3EFG A2dc|~A2GA EAD2||
~a2ab afd2|~g2ga ge^ce|a^gab afdf|eaag ~e2d2|
~a2ab afd2|(3gfe (3fed ed^cB|ABcd e2d^c|~A2GA EAGE||

